assets/logos/stripe.svg

<svg width="80" height="80" viewBox="0 0 80 80" fill="none" xmlns="http://www.w3.org/2000/svg">
<path fill-rule="evenodd" clip-rule="evenodd" d="M72 40.842C72 36.2638 69.7956 32.6512 65.5822 32.6512C61.3511 32.6512 58.7911 36.2638 58.7911 40.8062C58.7911 46.1892 61.8134 48.9075 66.1511 48.9075C68.2667 48.9075 69.8667 48.4247 71.0755 47.7451V44.1683C69.8667 44.7764 68.48 45.1519 66.72 45.1519C64.9956 45.1519 63.4667 44.5439 63.2711 42.4336H71.9644C71.9644 42.2011 72 41.2712 72 40.842ZM63.2178 39.143C63.2178 37.1222 64.4445 36.2816 65.5645 36.2816C66.6489 36.2816 67.8044 37.1222 67.8044 39.143H63.2178Z" fill="#635BFF"/>
<path fill-rule="evenodd" clip-rule="evenodd" d="M51.9288 32.6512C50.1866 32.6512 49.0666 33.4739 48.4443 34.0462L48.2132 32.9374H44.3021V53.7898L48.7466 52.8419L48.7643 47.7808C49.4043 48.2458 50.3466 48.9075 51.911 48.9075C55.0932 48.9075 57.991 46.3323 57.991 40.6631C57.9732 35.4769 55.0399 32.6512 51.9288 32.6512ZM50.8621 44.9731C49.8132 44.9731 49.191 44.5976 48.7643 44.1326L48.7466 37.4977C49.2088 36.9791 49.8488 36.6214 50.8621 36.6214C52.4799 36.6214 53.5999 38.4456 53.5999 40.7883C53.5999 43.1847 52.4977 44.9731 50.8621 44.9731Z" fill="#635BFF"/>
<path fill-rule="evenodd" clip-rule="evenodd" d="M38.1866 31.5961L42.6489 30.6304V27L38.1866 27.9478V31.5961Z" fill="#635BFF"/>
<path d="M42.6489 32.9553H38.1866V48.6035H42.6489V32.9553Z" fill="#635BFF"/>
<path fill-rule="evenodd" clip-rule="evenodd" d="M33.4046 34.2786L33.1201 32.9552H29.2802V48.6035H33.7246V37.9984C34.7735 36.6214 36.5512 36.8718 37.1024 37.0685V32.9552C36.5335 32.7406 34.4535 32.3472 33.4046 34.2786Z" fill="#635BFF"/>
<path fill-rule="evenodd" clip-rule="evenodd" d="M24.5156 29.0745L20.1778 30.0045L20.16 44.3293C20.16 46.9761 22.1334 48.9254 24.7645 48.9254C26.2222 48.9254 27.2889 48.6572 27.8756 48.3353V44.7049C27.3067 44.9374 24.4978 45.76 24.4978 43.1132V36.7645H27.8756V32.9553H24.4978L24.5156 29.0745Z" fill="#635BFF"/>
<path fill-rule="evenodd" clip-rule="evenodd" d="M12.4978 37.4977C12.4978 36.8003 13.0667 36.532 14.0089 36.532C15.36 36.532 17.0666 36.9433 18.4178 37.6766V33.4739C16.9422 32.8837 15.4844 32.6512 14.0089 32.6512C10.4 32.6512 8 34.5469 8 37.7123C8 42.6482 14.7555 41.8613 14.7555 43.9895C14.7555 44.8122 14.0444 45.0804 13.0489 45.0804C11.5733 45.0804 9.68888 44.4724 8.19555 43.6497V47.906C9.84888 48.6214 11.52 48.9254 13.0489 48.9254C16.7466 48.9254 19.2889 47.0834 19.2889 43.8822C19.2711 38.5529 12.4978 39.5007 12.4978 37.4977Z" fill="#635BFF"/>
</svg>

<svg xmlns="http://www.w3.org/2000/svg" width="80" height="80" fill="none" viewBox="0 0 80 80"><path fill="#635bff" fill-rule="evenodd" d="M72 40.842c0-4.578-2.204-8.19-6.418-8.19-4.23 0-6.79 3.612-6.79 8.154 0 5.383 3.021 8.102 7.36 8.102 2.115 0 3.715-.483 4.924-1.163v-3.577c-1.21.608-2.596.984-4.356.984-1.724 0-3.253-.608-3.449-2.718h8.693c0-.233.036-1.163.036-1.592m-8.782-1.699c0-2.02 1.227-2.861 2.346-2.861 1.085 0 2.24.84 2.24 2.861zm-11.289-6.492c-1.742 0-2.862.823-3.485 1.395l-.23-1.109h-3.912V53.79l4.445-.948.017-5.061c.64.465 1.583 1.127 3.147 1.127 3.182 0 6.08-2.576 6.08-8.245-.018-5.186-2.951-8.012-6.062-8.012m-1.067 12.322c-1.049 0-1.671-.375-2.098-.84l-.017-6.635c.462-.519 1.102-.877 2.115-.877 1.618 0 2.738 1.825 2.738 4.167 0 2.397-1.102 4.185-2.738 4.185M38.187 31.596l4.462-.966V27l-4.462.948z" clip-rule="evenodd"/><path fill="#635bff" d="M42.649 32.955h-4.462v15.648h4.462z"/><path fill="#635bff" fill-rule="evenodd" d="m33.405 34.279-.285-1.324h-3.84v15.648h4.445V37.998c1.048-1.377 2.826-1.126 3.377-.93v-4.113c-.569-.214-2.648-.608-3.697 1.324m-8.889-5.204-4.338.93-.018 14.324c0 2.647 1.973 4.596 4.605 4.596 1.457 0 2.524-.268 3.11-.59v-3.63c-.568.232-3.377 1.055-3.377-1.592v-6.349h3.378v-3.809h-3.378zm-12.018 8.423c0-.698.569-.966 1.51-.966 1.352 0 3.059.411 4.41 1.145v-4.203c-1.476-.59-2.934-.823-4.41-.823C10.4 32.651 8 34.547 8 37.712c0 4.936 6.756 4.15 6.756 6.277 0 .823-.712 1.091-1.707 1.091-1.476 0-3.36-.608-4.853-1.43v4.256a12.3 12.3 0 0 0 4.853 1.02c3.698 0 6.24-1.843 6.24-5.044-.018-5.33-6.791-4.381-6.791-6.384" clip-rule="evenodd"/></svg>
